Papirus/24x24/apps/hashit.svg

<svg viewBox="0 0 24 24" width="24" xmlns="http://www.w3.org/2000/svg" version="1.1" height="24">
 <path style="fill:#6ea23d" d="m12 2a10 10 0 0 0 -10 10 10 10 0 0 0 10 10 10 10 0 0 0 10 -10 10 10 0 0 0 -10 -10z"/>
 <path style="opacity:.2" d="m2.01075 12.209a10 10 0 0 0 -0.01075 0.291 10 10 0 0 0 10 10 10 10 0 0 0 10 -10 10 10 0 0 0 -0.0105 -0.209 10 10 0 0 1 -9.9895 9.709 10 10 0 0 1 -9.989 -9.791z"/>
 <path style="opacity:.2;fill:#ffffff" d="m12 2a10 10 0 0 0 -10 10 10 10 0 0 0 0.01075 0.209 10 10 0 0 1 9.989 -9.709 10 10 0 0 1 9.9895 9.791 10 10 0 0 0 0.0105 -0.291 10 10 0 0 0 -10 -10z"/>
 <path style="opacity:.2" d="m9.8847656 6.5-0.6933594 3h-2.5761718l-0.4609375 2h2.5761719l-0.4609376 2h-2.8085937l-0.4609375 2h2.8066406l-0.6914062 3h2l0.6914062-3h3.0000004l-0.691407 3h2l0.691407-3h2.542968l0.460938-2h-2.541016l0.460938-2h2.773437l0.460938-2h-2.773438l0.69336-3h-2l-0.69336 3h-3l0.69336-3zm0.8457034 5h3l-0.460938 2h-3z"/>
 <path style="fill:#ffffff" d="m9.8847656 6l-2.7695312 12h2l2.7695316-12h-2.0000004zm5.0000004 0l-2.769532 12h2l2.769532-12h-2z"/>
 <path style="fill:#ffffff" d="m6.6152345 9-0.4609375 2h12.349609l0.460938-2z"/>
 <path style="fill:#ffffff" d="m5.461914 13-0.461914 2h12.349609l0.461914-2z"/>
</svg>

<svg xmlns="http://www.w3.org/2000/svg" width="24" height="24" version="1.1" viewBox="0 0 24 24">
 <path style="fill:#6ea23d" d="M 12,2 A 10,10 0 0 0 2,12 10,10 0 0 0 12,22 10,10 0 0 0 22,12 10,10 0 0 0 12,2 Z"/>
 <path style="opacity:0.2" d="M 2.01075,12.209 A 10,10 0 0 0 2,12.5 10,10 0 0 0 12,22.5 10,10 0 0 0 22,12.5 10,10 0 0 0 21.9895,12.291 10,10 0 0 1 12,22 10,10 0 0 1 2.011,12.209 Z"/>
 <path style="opacity:0.2;fill:#ffffff" d="m 12,2 a 10,10 0 0 0 -10,10 10,10 0 0 0 0.01075,0.209 10,10 0 0 1 9.989,-9.709 10,10 0 0 1 9.9895,9.791 10,10 0 0 0 0.0105,-0.291 10,10 0 0 0 -10,-10 z"/>
 <path style="opacity:0.2" d="m 9.8847656,6.5 -0.6933594,3 H 6.6152344 l -0.4609375,2 h 2.5761719 l -0.4609376,2 H 5.4609375 L 5,15.5 h 2.8066406 l -0.6914062,3 h 2 l 0.6914062,-3 h 3.0000004 l -0.691407,3 h 2 l 0.691407,-3 h 2.542968 l 0.460938,-2 h -2.541016 l 0.460938,-2 h 2.773437 l 0.460938,-2 h -2.773438 l 0.69336,-3 h -2 l -0.69336,3 h -3 l 0.69336,-3 z m 0.8457034,5 h 3 l -0.460938,2 h -3 z"/>
 <path style="fill:#ffffff" d="M 9.8847656 6 L 7.1152344 18 L 9.1152344 18 L 11.884766 6 L 9.8847656 6 z M 14.884766 6 L 12.115234 18 L 14.115234 18 L 16.884766 6 L 14.884766 6 z"/>
 <path style="fill:#ffffff" d="M 6.6152345,9 6.154297,11 h 12.349609 l 0.460938,-2 z"/>
 <path style="fill:#ffffff" d="M 5.461914,13 5,15 h 12.349609 l 0.461914,-2 z"/>
</svg>
